src/components/00-materials/images-raw/Family Single M.svg

<svg width="96" height="96" viewBox="0 0 96 96" fill="none" xmlns="http://www.w3.org/2000/svg">
<path d="M72.77 49.1101C71.48 51.7801 69.98 53.5701 66.08 53.5701H61.62V58.0001C61.62 62.5301 64.46 66.9101 69.42 66.9101C74.38 66.9101 77.22 62.5301 77.22 58.0001V52.4601C76.2243 52.4252 75.2634 52.0851 74.4675 51.4859C73.6715 50.8866 73.0789 50.0573 72.77 49.1101Z" stroke="#00008F" stroke-width="2" stroke-linecap="round" stroke-linejoin="round"/>
<path d="M76.3 62.36C77.9742 61.3136 79.3493 59.8522 80.292 58.1175C81.2347 56.3829 81.7128 54.4339 81.68 52.4599V51.34C81.6089 48.4078 80.4124 45.6154 78.3385 43.5414C76.2645 41.4675 73.4721 40.271 70.54 40.2H68.31C65.3778 40.271 62.5854 41.4675 60.5115 43.5414C58.4375 45.6154 57.241 48.4078 57.17 51.34V52.4599C57.1342 54.4345 57.6111 56.3845 58.554 58.1196C59.497 59.8548 60.8738 61.3158 62.55 62.36M63.85 64.7099V69.1699L58.42 70.25C56.2753 70.5034 54.2932 71.5196 52.8356 73.1132C51.3779 74.7067 50.5418 76.7712 50.48 78.93V82.1299C50.496 82.7827 50.7413 83.409 51.1728 83.899C51.6043 84.389 52.1945 84.7115 52.84 84.8099L60.61 86.2099C66.4364 87.26 72.4036 87.26 78.23 86.2099L86 84.8099C86.6465 84.7118 87.2379 84.3897 87.6711 83.8998C88.1042 83.41 88.3516 82.7836 88.37 82.1299V78.93C88.3081 76.7712 87.4721 74.7067 86.0144 73.1132C84.5568 71.5196 82.5747 70.5034 80.43 70.25L75 69.1699C75 70.6472 74.4131 72.064 73.3686 73.1085C72.324 74.1531 70.9072 74.7399 69.43 74.7399C67.9527 74.7399 66.536 74.1531 65.4914 73.1085C64.4468 72.064 63.86 70.6472 63.86 69.1699M74.99 64.7099V69.1699M58.28 81.43V85.79M80.57 81.43V85.79" stroke="#00008F" stroke-width="2" stroke-linecap="round" stroke-linejoin="round"/>
<path d="M48.25 42.4299C54.03 42.4299 57.17 37.6099 57.17 32.4299V23.4899C56.0162 23.5275 54.876 23.2314 53.8863 22.6372C52.8965 22.043 52.0992 21.1759 51.59 20.1399C50.1 23.2099 48.33 25.7099 43.79 25.7099H39.34V32.3999C39.34 37.6099 42.47 42.4299 48.25 42.4299Z" stroke="#00008F" stroke-width="2" stroke-miterlimit="10"/>
<path d="M57.17 34.63C57.17 34.63 62.74 32.4 62.74 24.63V22.37C62.74 19.03 62.74 14.57 58.28 14.57C56.2 11.1 53.82 9 48.25 9H47.14C43.6085 9.04661 40.2348 10.4702 37.7375 12.9675C35.2402 15.4649 33.8166 18.8386 33.77 22.37V24.6C33.77 32.4 39.34 34.6 39.34 34.6M41.57 44.66V39.39M41.57 44.66L37.46 45.11M41.57 44.66L46.34 52.66C46.5364 52.9916 46.8159 53.2664 47.1508 53.4573C47.4857 53.6481 47.8645 53.7485 48.25 53.7485C48.6354 53.7485 49.0143 53.6481 49.3492 53.4573C49.6841 53.2664 49.9635 52.9916 50.16 52.66L54.94 44.66M54.94 39.29V44.66M54.94 44.66L58.98 45.1M41.62 64.33C47.2828 64.9692 53.008 64.7907 58.62 63.8L62.74 63.07M41.62 64.33C40.7907 63.7342 40.1083 62.957 39.6248 62.0576C39.1413 61.1582 38.8695 60.1604 38.83 59.14V48C38.8892 47.4389 38.7927 46.8723 38.551 46.3625C38.3094 45.8527 37.9319 45.4193 37.46 45.11M41.62 64.33C41.7988 64.4678 41.9858 64.5947 42.18 64.71C40.75 67.56 37.51 69.04 35.36 69.71M37.46 45.11C36.8479 44.7777 36.1555 44.6219 35.46 44.66C33.65 41.51 31 40.2 26.58 40.2H25.46C22.5079 40.2079 19.679 41.3841 17.5916 43.4716C15.5041 45.559 14.3279 48.3879 14.32 51.34V59.14C14.32 62.79 10.98 64.71 10.98 64.71C12.4 67.56 15.64 69.04 17.8 69.71" stroke="#00008F" stroke-width="2" stroke-miterlimit="10"/>
<path d="M32.15 64.71V69.17L37.58 70.25C39.7247 70.5034 41.7068 71.5197 43.1644 73.1132C44.6221 74.7067 45.4581 76.7712 45.52 78.93V82.13C45.504 82.7827 45.2587 83.409 44.8272 83.899C44.3957 84.389 43.8055 84.7115 43.16 84.81L35.39 86.21C29.5636 87.26 23.5964 87.26 17.77 86.21L10 84.81C9.3517 84.7139 8.7579 84.3927 8.32272 83.9027C7.88754 83.4127 7.63876 82.7851 7.62 82.13V78.93C7.68186 76.7712 8.51791 74.7067 9.97557 73.1132C11.4332 71.5197 13.4153 70.5034 15.56 70.25L21 69.17M37.72 81.43V85.79" stroke="#00008F" stroke-width="2" stroke-linecap="round" stroke-linejoin="round"/>
<path d="M17.91 69.7801L19.91 74.7801C22.28 79.7801 30.91 79.7801 33.28 74.7801L35.28 69.7801M21.01 64.7101V69.1701M15.43 81.4301V85.7901M28.81 51.3401H23.23C22.3703 51.3638 21.5263 51.5757 20.7574 51.961C19.9885 52.3463 19.3135 52.8956 18.78 53.5701V58.0001C18.78 62.4601 21.61 66.9101 26.58 66.9101C31.55 66.9101 34.38 62.4601 34.38 58.0001V49.1101C32.8546 50.5034 30.8754 51.2958 28.81 51.3401Z" stroke="#00008F" stroke-width="2" stroke-linecap="round" stroke-linejoin="round"/>
</svg>

<svg width="96" height="96" viewBox="0 0 96 96" fill="none" xmlns="http://www.w3.org/2000/svg"><path d="M72.77 49.11c-1.29 2.67-2.79 4.46-6.69 4.46h-4.46V58c0 4.53 2.84 8.91 7.8 8.91s7.8-4.38 7.8-8.91v-5.54a4.86 4.86 0 01-4.45-3.35z" stroke="#00008F" stroke-width="2" stroke-linecap="round" stroke-linejoin="round"/><path d="M76.3 62.36a11.45 11.45 0 005.38-9.9v-1.12A11.42 11.42 0 0070.54 40.2h-2.23a11.42 11.42 0 00-11.14 11.14v1.12a11.42 11.42 0 005.38 9.9m1.3 2.35v4.46l-5.43 1.08a8.999 8.999 0 00-7.94 8.68v3.2a2.78 2.78 0 002.36 2.68l7.77 1.4a49.67 49.67 0 0017.62 0l7.77-1.4a2.79 2.79 0 002.37-2.68v-3.2a9 9 0 00-7.94-8.68L75 69.17a5.57 5.57 0 01-11.14 0m11.13-4.46v4.46M58.28 81.43v4.36m22.29-4.36v4.36" stroke="#00008F" stroke-width="2" stroke-linecap="round" stroke-linejoin="round"/><path d="M48.25 42.43c5.78 0 8.92-4.82 8.92-10v-8.94a6 6 0 01-5.58-3.35c-1.49 3.07-3.26 5.57-7.8 5.57h-4.45v6.69c0 5.21 3.13 10.03 8.91 10.03z" stroke="#00008F" stroke-width="2" stroke-miterlimit="10"/><path d="M57.17 34.63s5.57-2.23 5.57-10v-2.26c0-3.34 0-7.8-4.46-7.8C56.2 11.1 53.82 9 48.25 9h-1.11a13.55 13.55 0 00-13.37 13.37v2.23c0 7.8 5.57 10 5.57 10m2.23 10.06v-5.27m0 5.27l-4.11.45m4.11-.45l4.77 8a2.22 2.22 0 003.82 0l4.78-8m0-5.37v5.37m0 0l4.04.44M41.62 64.33c5.663.64 11.388.46 17-.53l4.12-.73m-21.12 1.26a6.71 6.71 0 01-2.79-5.19V48a3.07 3.07 0 00-1.37-2.89m4.16 19.22c.179.138.366.265.56.38-1.43 2.85-4.67 4.33-6.82 5m2.1-24.6a3.76 3.76 0 00-2-.45c-1.81-3.15-4.46-4.46-8.88-4.46h-1.12a11.17 11.17 0 00-11.14 11.14v7.8c0 3.65-3.34 5.57-3.34 5.57 1.42 2.85 4.66 4.33 6.82 5" stroke="#00008F" stroke-width="2" stroke-miterlimit="10"/><path d="M32.15 64.71v4.46l5.43 1.08a9 9 0 017.94 8.68v3.2a2.78 2.78 0 01-2.36 2.68l-7.77 1.4a49.674 49.674 0 01-17.62 0L10 84.81a2.79 2.79 0 01-2.38-2.68v-3.2a9 9 0 017.94-8.68L21 69.17m16.72 12.26v4.36" stroke="#00008F" stroke-width="2" stroke-linecap="round" stroke-linejoin="round"/><path d="M17.91 69.78l2 5c2.37 5 11 5 13.37 0l2-5m-14.27-5.07v4.46m-5.58 12.26v4.36m13.38-34.45h-5.58a5.88 5.88 0 00-4.45 2.23V58c0 4.46 2.83 8.91 7.8 8.91s7.8-4.45 7.8-8.91v-8.89a8.53 8.53 0 01-5.57 2.23z" stroke="#00008F" stroke-width="2" stroke-linecap="round" stroke-linejoin="round"/></svg>
